X:504
T:Black Watch Polka, The
C:Joe Buchanan's Scottish Tome - Page 478.0
I:478 0
R:Polka
Z:Carl Allison
L:1/8
M:2/4
K:D
e | aa A/>c/e/<a/ | gf e>f | gf/>g/ d/>c/d/<f/ | eA ce |
aa A/>c/e/<a/ | gf e>f | gf/>e/ dc/>B/ | A/>c/e/<a/ A :|
A | c2 c>B | A/>c/e/>f/ e>d | dB gf | f/>e/e/>d/ d/>c/c/>B/ |
c2 c>B | A/>c/e/>f/ ed | dB gf/>e/ | A/>c/e/<a/ A :|
f/>g/ | aA fe/>f/ | gB Be/>f/ | gB f/<a/e/>c/ | dA Af/>g/ |
aA f/<a/e/>f/ | gA ce/>f/ | gB cB/>c/ dd/>e/ d :|
A | A>f B/<d/A | A>f B/<d/A | Ae/>f/ a/>f/f/>e/ | e/>d/d/>c/ c/>B/B/>A/ |
A>f B/<d/A | Bg eB | aa gf/>e/ | dd/>e/ d :|
f/>g/ | aA fA | aA ce/>f/ | gA eA | dc/>e/ f>Ac<A |
aA fA | aA ce/>f/ | gB cB/>c/ | dd/>e/ d :|
